X: 04049
T: KIGGEN'S REEL
C: Bob McQuillen 19 Sept 78
B: Bob's Note Book 04 #49
R: reel
Z: 2020 John Chambers <jc:trillian.mit.edu>
M: C
L: 1/8
K: A
AB \
| cecA B2cB | ABcA BAFE | AEAB cAce | faec B2AB |
| cecA B2cB | ABcA BAFE | AEAc ecAc | BAAG A2  :|
|: ef \
| a2a2 f2af | ecAc BAFE | Acea fecA | BABc e2ef |
| a2a2 f2af | ecAc BAFE | Acea fecA | BABc A2  :|
%%begintext align
%% For John Kiggens of the Dublin School
%%endtext

%%sep 1 1 500

%%sep 1 1 500

